X: 57
T: No_156.krn
N: Derived from No_156.krn
%%abc-version 2.0
%%abcx-abcm2ps-target-version 5.9.1 (29 Sep 2008)
%%abc-creator hum2abc beta
%%abcx-conversion-date 2019/03/15 08:29:13
%%humdrum-veritas 432697739
%%humdrum-veritas-data 910715264
%%linebreak <none>
%%barnumbers 0
L: 1/8
M: 2/4
%%staves {1 2}
V: 1 clef=bass
V: 2 clef=bass
K: Bb
[V:1] [K:clef=bass][M:2/4]G,B, G,3/F,/ | 
[V:2] [K:clef=bass][M:2/4]G,,G,, G,,G,, | 
[V:1] G,2G,2 ||  
[V:2] G,,G,, G,,G,, ||  
[V:1] [M:3/4]G,F, D, (3F,/D,/C,/ D,/!fermata!C,3/ | 
[V:2] [M:3/4]z6 | 
[V:1] D,2D,2(3!accent!D,!accent!C,!accent!B,, ||  
[V:2] z6 ||  
[V:1] [M:2/4]G,,B,, C,B,, | 
[V:2] [M:2/4]z4 | 
[V:1] G,,3/G,,/G,,2- | 
[V:2] z4 | 
[V:1] G,,4 |]  
[V:2] z4 |]  



